**kern	**kern	**dynam
*part1	*part1	*part1
*staff2	*staff1	*
*I"Piano	*	*
*clefF4	*clefG2	*
*k[]	*k[]	*
=1	=1	=1
*	*^	*
8DL	4g	2B	.
8G	.	.	.
8F#X	4fn	.	.
8GJ	.	.	.
*	*v	*v	*
=	=	=
8DL	4B 4f	.
8G	.	.
8C	4A 4e-X 4f#X	.
8DJ	.	.
=	=	=
*	*^	*
8BBL	4a	2G 2d	.
8D	.	.	.
8C#X	4g	.	.
8DJ	.	.	.
*	*v	*v	*
=	=	=
8BBL	2G 2d 2g	.
8D	.	.
8C#X	.	.
8DJ	.	.
=	=	=
*	*^	*
!	!LO:TX:a:i:t=riten.	!	!
8AAL	4.dd	2c 2f#X	.
8D	.	.	.
8C#X	.	.	.
8DJ	8cc	.	.
*	*v	*v	*
=	=	=
8r	[2fn 2ccn [2ffn	.
!	!	!LO:DY:a
8GGGL	.	f
8DD	.	.
8GGJ	.	.
=	=	=
*	*^	*
8DL	2f;] 2ff]	4b	.
8G	.	.	.
8d	.	4g	.
8f;J	.	.	.
=	=	=	=
!	!LO:TX:a:i:t=a tempo	!	!LO:DY:a
4CC 4C	2e 2ee	8rff	ff
.	.	4g 4cc	.
4G 4c	.	.	.
.	.	8g 8cc	.
*	*v	*v	*
=	=	=
*-	*-	*-
!!!system-decoration: {(s1,s2)}
